img/header/logo.svg

<svg width="131" height="26" viewBox="0 0 131 26" fill="none" xmlns="http://www.w3.org/2000/svg">
<path d="M7.77266 19.5558L7.70687 19.5005L1.07935 25.0898C1.68479 25.654 2.49619 26 3.38959 26H6.04689H17.9785L7.77266 19.5558Z" fill="url(#paint0_linear_132_48)"/>
<path d="M12.2854 10.3626L0 0V7.76912L5.18207 12.1393C5.71506 12.5892 5.71506 13.4099 5.18207 13.8597L0 18.2309V22.6116C0 23.5904 0.41571 24.4712 1.07932 25.0898L7.77263 19.4442L12.2863 15.6374C13.9206 14.2591 13.9206 11.7418 12.2854 10.3626Z" fill="white"/>
<path d="M29.484 18.8218H32.2738L29.6584 15.075L29.7195 15.0483C30.4784 14.7185 31.0724 14.2362 31.4843 13.6157C31.8962 12.9952 32.105 12.246 32.105 11.3872C32.105 10.5294 31.8991 9.77642 31.4919 9.1502C31.0858 8.52399 30.4975 8.03407 29.7433 7.69284C28.9862 7.35066 28.0814 7.17719 27.0536 7.17719H22.0193V18.8209H24.6318V15.5468H27.2166L29.484 18.8218ZM24.6318 13.4908V9.2865H26.9029C27.7296 9.2865 28.3684 9.46856 28.8013 9.82789C29.238 10.1901 29.4592 10.7153 29.4592 11.3892C29.4592 12.0516 29.238 12.5739 28.8013 12.9418C28.3674 13.3069 27.7286 13.4918 26.902 13.4918H24.6318V13.4908Z" fill="white"/>
<path d="M36.9753 7.17816H34.3628V18.8218H36.9753V7.17816Z" fill="white"/>
<path d="M54.9539 7.17816L52.1764 15.6269L49.4505 7.17816H47.0106L44.1988 15.5582L41.5072 7.17816H38.8003L42.6275 18.8218H45.4545L48.1643 10.7458L50.7891 18.8218H53.6324L57.4424 7.17816H54.9539Z" fill="white"/>
<path d="M66.4212 16.3036L67.4623 18.8218H70.1969L64.9891 7.17816H62.3728L57.1812 18.8218H59.8489L60.8901 16.3036H66.4212ZM63.6647 9.65158L65.6098 14.3468H61.7187L63.6647 9.65158Z" fill="white"/>
<path d="M79.783 7.17816H69.6467V9.28653H73.4091V18.8218H76.0206V9.28653H79.783V7.17816Z" fill="white"/>
<path d="M89.4052 13.9198V11.9125H83.9476V9.25221H90.127V7.17816H81.3523V18.8218H90.3454V16.7478H83.9476V13.9198H89.4052Z" fill="white"/>
<path d="M99.8839 18.8218H102.889L98.5452 12.7989L98.5681 12.7674L102.604 7.17816H99.799L97.1179 11.0298L94.3862 7.17816H91.4295L95.5218 12.8999L91.2122 18.8218H94.2003L97.0168 14.7014L99.8839 18.8218Z" fill="white"/>
<defs>
<linearGradient id="paint0_linear_132_48" x1="2.44788" y1="19.293" x2="12.1869" y2="27.8987" gradientUnits="userSpaceOnUse">
<stop stop-color="#0EB69D"/>
<stop offset="1" stop-color="#85E047"/>
</linearGradient>
</defs>
</svg>

<svg width="131" height="26" viewBox="0 0 131 26" fill="none" xmlns="http://www.w3.org/2000/svg"><path d="M7.773 19.556l-.066-.056-6.628 5.59c.606.564 1.417.91 2.31.91h14.59L7.774 19.556z" fill="url(#paint0_linear_132_48)"/><path d="M12.285 10.363L0 0v7.77l5.182 4.37c.533.45.533 1.27 0 1.72L0 18.23v4.382c0 .978.416 1.86 1.08 2.478l6.693-5.646 4.513-3.807a3.45 3.45 0 000-5.274zm17.199 8.459h2.79l-2.616-3.747.061-.027c.76-.33 1.353-.812 1.765-1.432.412-.62.621-1.37.621-2.229 0-.858-.206-1.61-.613-2.237-.406-.626-.995-1.116-1.749-1.457-.757-.342-1.662-.516-2.69-.516H22.02v11.644h2.613v-3.274h2.585l2.267 3.275zm-4.852-5.331V9.287h2.27c.828 0 1.466.182 1.9.54.436.363.657.888.657 1.562 0 .663-.221 1.185-.658 1.553-.434.365-1.072.55-1.899.55h-2.27v-.001zm12.343-6.313h-2.612v11.644h2.612V7.178zm17.979 0l-2.778 8.449-2.726-8.449h-2.44l-2.811 8.38-2.692-8.38H38.8l3.828 11.644h2.827l2.71-8.076 2.624 8.076h2.843l3.81-11.644h-2.488zm11.467 9.126l1.041 2.518h2.735L64.989 7.178h-2.616L57.18 18.822h2.668l1.041-2.518h5.531zm-2.756-6.652l1.945 4.695h-3.891l1.946-4.695zm16.118-2.474H69.647v2.109h3.762v9.535h2.612V9.287h3.762V7.178zm9.622 6.742v-2.008h-5.457v-2.66h6.179V7.178h-8.775v11.644h8.993v-2.074h-6.397V13.92h5.457zm10.479 4.902h3.005l-4.344-6.023.023-.032 4.036-5.589h-2.805l-2.681 3.852-2.732-3.852H91.43l4.092 5.722-4.31 5.922H94.2l2.817-4.12 2.867 4.12z" fill="#fff"/><defs><linearGradient id="paint0_linear_132_48" x1="2.448" y1="19.293" x2="12.187" y2="27.899" gradientUnits="userSpaceOnUse"><stop stop-color="#0EB69D"/><stop offset="1" stop-color="#85E047"/></linearGradient></defs></svg>
